Obsidian-SemiLight/actions/22s/snap-grid-guide-intersections.svg

<svg viewBox="0 0 22 22" xmlns="http://www.w3.org/2000/svg"><path d="m10.5 3v9h1v-9zm-3 1v4l2-2zm7 0-2 2 2 2zm3.966797 3.2519531-.005859.0019531v.0019532zm-.005859.0039063-6.892579 4.7441406h.431641v.919922l7-4.8125001zm-8.460938 5.8242186-6.6992188 4.611328.5820313.808594 6.5449215-4.5h-.427734zm-6.6992188 4.611328-.0019531-.003906v.005859zm7.1992188-3.691406v5h1v-5z" fill="#4d4d4d"/><path d="m9 11v4h4v-4zm1 1h2v2h-2z" fill="#3daee9"/></svg>

<svg xmlns="http://www.w3.org/2000/svg" viewBox="0 0 22 22">
  <defs id="defs3051">
    <style type="text/css" id="current-color-scheme">
      .ColorScheme-Text {
        color:#4d4d4d;
      }
      .ColorScheme-Highlight {
        color:#3daee9;
      }
      </style>
  </defs>
 <path 
     style="fill:currentColor;fill-opacity:1;stroke:none" 
     d="M 10.5 3 L 10.5 12 L 11.5 12 L 11.5 3 L 10.5 3 z M 7.5 4 L 7.5 8 L 9.5 6 L 7.5 4 z M 14.5 4 L 12.5 6 L 14.5 8 L 14.5 4 z M 18.466797 7.2519531 L 18.460938 7.2539062 L 18.460938 7.2558594 L 18.466797 7.2519531 z M 18.460938 7.2558594 L 11.568359 12 L 12 12 L 12 12.919922 L 19 8.1074219 L 18.460938 7.2558594 z M 10 13.080078 L 3.3007812 17.691406 L 3.8828125 18.5 L 10.427734 14 L 10 14 L 10 13.080078 z M 3.3007812 17.691406 L 3.2988281 17.6875 L 3.2988281 17.693359 L 3.3007812 17.691406 z M 10.5 14 L 10.5 19 L 11.5 19 L 11.5 14 L 10.5 14 z "
     class="ColorScheme-Text"
     />
 <path 
     style="fill:currentColor;fill-opacity:1;stroke:none" 
     d="M 9 11 L 9 15 L 13 15 L 13 11 L 9 11 z M 10 12 L 12 12 L 12 14 L 10 14 L 10 12 z "
     class="ColorScheme-Highlight"
     />
</svg>
